!!!COM: Beethoven, Ludwig van
!!!CDT: 1770///-1827///
!!!ODT: 1806///
!!!OTL: String Quartet No. 9 in C Major, Op. 59, No. 3
!!!OPS: Op. 59
!!!ONM: No. 3
!!!OMV: Mvmt. 3
!!!OMD: Menuet and Trio
!!!PDT: 1808///
!!!PPP: Vienna
!!!ODE: Dem Grafen Rasoumoffsky gewidmet
!!!ONB: Op. 59 are called the Rasumovsky Quartets
!!!MPD: 1806///
**kern	**dynam	**kern	**dynam	**kern	**dynam	**kern	**dynam
*staff4	*staff4	*staff3	*staff3	*staff2	*staff2	*staff1	*staff1
*Icello	*Icello	*Iviola	*Iviola	*Ivioln	*Ivioln	*Ivioln	*Ivioln
*>[A,B,B,C,C1,C,C2,D,D1,D,D2,A,B,E]	*>[A,B,B,C,C1,C,C2,D,D1,D,D2,A,B,E]	*>[A,B,B,C,C1,C,C2,D,D1,D,D2,A,B,E]	*>[A,B,B,C,C1,C,C2,D,D1,D,D2,A,B,E]	*>[A,B,B,C,C1,C,C2,D,D1,D,D2,A,B,E]	*>[A,B,B,C,C1,C,C2,D,D1,D,D2,A,B,E]	*>[A,B,B,C,C1,C,C2,D,D1,D,D2,A,B,E]	*>[A,B,B,C,C1,C,C2,D,D1,D,D2,A,B,E]
*>norep[A,B,C,C2,D,D2,A,B,E]	*>norep[A,B,C,C2,D,D2,A,B,E]	*>norep[A,B,C,C2,D,D2,A,B,E]	*>norep[A,B,C,C2,D,D2,A,B,E]	*>norep[A,B,C,C2,D,D2,A,B,E]	*>norep[A,B,C,C2,D,D2,A,B,E]	*>norep[A,B,C,C2,D,D2,A,B,E]	*>norep[A,B,C,C2,D,D2,A,B,E]
*>A	*>A	*>A	*>A	*>A	*>A	*>A	*>A
*clefF4	*clefF4	*clefC3	*clefC3	*clefG2	*clefG2	*clefG2	*clefG2
*k[]	*k[]	*k[]	*k[]	*k[]	*k[]	*k[]	*k[]
*C:	*C:	*C:	*C:	*C:	*C:	*C:	*C:
*M3/4	*M3/4	*M3/4	*M3/4	*M3/4	*M3/4	*M3/4	*M3/4
*MM110	*MM110	*MM110	*MM110	*MM110	*MM110	*MM110	*MM110
=1-	=1-	=1-	=1-	=1-	=1-	=1-	=1-
(2c\	p	(2e\	p	(2g/	p	(2cc\	p
16d\LL	.	16f\LL	.	16g/LL	.	16b\LL	.
16c\	.	16e\	.	16a/	.	16cc\	.
16B\	.	16d\	.	16b/	.	16dd\	.
16A\JJ)	.	16c\JJ)	.	16cc/JJ)	.	16ee\JJ)	.
=2	=2	=2	=2	=2	=2	=2	=2
(4G\	.	(2B/	.	(2dd\	.	(2ff\	.
4G#\	.	.	.	.	.	.	.
4A\)	.	4c/)	.	4cc\)	.	4ee\)	.
=3	=3	=3	=3	=3	=3	=3	=3
(4F\	.	(2c\	.	[2cc\	.	(2dd\	.
2F#\)	.	.	.	.	.	.	.
.	.	4d\)	.	4cc\]	.	[4aa\)	.
=4	=4	=4	=4	=4	=4	=4	=4
(4G\	.	(4d\	.	(4b/	.	(8aa\]	.
.	.	.	.	.	.	4gg\	.
4D\	.	4c\)	.	4a/	.	.	.
.	.	.	.	.	.	8ff#\)	.
4G\)	.	(12B\L	.	[4g/)	.	(12gg\L	.
.	.	12d\)	.	.	.	12ffn\)	.
.	.	12f'\J	.	.	.	12dd'\J	.
=5	=5	=5	=5	=5	=5	=5	=5
(2c\	.	(2e\	.	8g/L]	.	(2cc\	.
.	.	.	.	(16g/L	.	.	.
.	.	.	.	16a/JJ	.	.	.
.	.	.	.	16g/LL	.	.	.
.	.	.	.	16a/	.	.	.
.	.	.	.	16g/	.	.	.
.	.	.	.	16a/JJ	.	.	.
16d\LL	.	16f\LL	.	16g/LL	.	16b\LL	.
16c\	.	16e\	.	16a/	.	16cc\	.
16B\	.	16d\	.	16b/	.	16dd\	.
16A\JJ)	.	16c\JJ)	.	16cc/JJ)	.	16ee\JJ)	.
=6	=6	=6	=6	=6	=6	=6	=6
(4G\	.	(2B/	.	(2dd\	.	(2ff\	.
4G#\	.	.	.	.	.	.	.
4A\)	.	4c\)	.	4cc\)	.	4ee\)	.
=7	=7	=7	=7	=7	=7	=7	=7
(4F\	.	(4c\	.	(2cc\	.	4.dd\	.
4F#\	.	4.d\	.	.	.	.	.
.	.	.	.	.	.	(8aa\L	.
4G\)	.	.	.	4b\)	.	8gg\J)	.
.	.	16c\LL	.	.	.	8ff'\	.
.	.	16d\JJ)	.	.	.	.	.
=8	=8	=8	=8	=8	=8	=8	=8
(4c\	.	(4e\	.	4cc\	.	(4.ee\	.
4G\	.	4f\	.	4b\	.	.	.
.	.	.	.	.	.	8dd\	.
4C/)	.	4e\)	.	4cc\	.	4cc\)	.
=9	=9	=9	=9	=9	=9	=9	=9
(2C/	.	(2E/	.	(2G/	.	(2c/	.
16D/LL	.	16F/LL	.	16G/LL	.	16B/LL	.
16C/	.	16E/	.	16A/	.	16c/	.
16BB/	.	16D/	.	16B/	.	16d/	.
16AA/JJ)	.	16C/JJ)	.	16c/JJ)	.	16e/JJ)	.
=10	=10	=10	=10	=10	=10	=10	=10
(4GG/	.	(2D/	.	(2B/	.	(2f/	.
4GG#/	.	.	.	.	.	.	.
4AA/)	.	4C/)	.	4c/)	.	4e/)	.
=11	=11	=11	=11	=11	=11	=11	=11
(4FF/	.	(2C/	.	2c/	.	(2d/	.
2FF#/)	.	.	.	.	.	.	.
.	.	4D/)	.	(4c/	.	[4a/)	.
=12	=12	=12	=12	=12	=12	=12	=12
(4GG/	.	4D/	.	4B/	.	(8a/]	.
.	.	.	.	.	.	4g/	.
4DD/	.	[4D/	.	4c/	.	.	.
.	.	.	.	.	.	8f#/)	.
4GG/)	.	12D/L]	.	4B/)	.	(12g/L	.
.	.	(12D/	.	.	.	12fn/)	.
.	.	12F/J)	.	.	.	12d'/J	.
=13	=13	=13	=13	=13	=13	=13	=13
(2C/	.	(2E/	.	8c/L	.	(4.c/	.
.	.	.	.	(16G/L	.	.	.
.	.	.	.	16A/JJ	.	.	.
.	.	.	.	16G/LL	.	.	.
.	.	.	.	16A/	.	.	.
.	.	.	.	16G/	.	16d/LL	.
.	.	.	.	16A/JJ	.	16c/JJ	.
16D/LL	.	16F/LL	.	16G/LL	.	16B/LL	.
16C/	.	16E/	.	16A/	.	16c/	.
16BB/	.	16D/	.	16B/	.	16d/	.
16AA/JJ)	.	16C/JJ)	.	16c/JJ)	.	16e/JJ)	.
=14	=14	=14	=14	=14	=14	=14	=14
(4GG/	.	(2D/	.	(2B/	.	(2f/	.
4GG#/	.	.	.	.	.	.	.
4AA/)	.	4C/)	.	[4c/)	.	4e/)	.
=15	=15	=15	=15	=15	=15	=15	=15
(4FF/	.	4C/	.	2c/]	.	4.d/	.
4FF#/	.	(4.D/	.	.	.	.	.
.	.	.	.	.	.	(8a/L	.
4GG/)	.	.	.	4B/	.	8g/)	.
.	.	16C/LL	.	.	.	8f'/J	.
.	.	16D/JJ)	.	.	.	.	.
=16	=16	=16	=16	=16	=16	=16	=16
(4C/	.	(4E/	.	(4c/	.	(4..e/	.
4GG/	.	4F/	.	4B/	.	.	.
.	.	.	.	.	.	16d/	.
4CC/)	.	4E/)	.	4c/)	.	4c/)	.
=17!|:	=17!|:	=17!|:	=17!|:	=17!|:	=17!|:	=17!|:	=17!|:
*>B	*>B	*>B	*>B	*>B	*>B	*>B	*>B
4r	.	4r	.	4r	.	(2g/	.
2G\	.	2B/	.	2d/	.	.	.
.	.	.	.	.	.	16f#/LL	.
.	.	.	.	.	.	16g/	.
.	.	.	.	.	.	16a/	.
.	.	.	.	.	.	16b/JJ)	.
=18	=18	=18	=18	=18	=18	=18	=18
4r	.	4r	.	4r	.	4.cc\	.
2G\	.	2c\	.	2f#/	.	.	.
.	.	.	.	.	.	(8a/	.
.	.	.	.	.	.	16g#/LL	.
.	.	.	.	.	.	16a/	.
.	.	.	.	.	.	16b/	.
.	.	.	.	.	.	16cc/JJ)	.
=19	=19	=19	=19	=19	=19	=19	=19
4r	.	4r	.	4r	.	(8dd\L	.
.	.	.	.	.	.	8b\J	.
4G\	.	4d\	.	4fn/	.	16a\LL	.
.	.	.	.	.	.	16b\	.
.	.	.	.	.	.	16cc\	.
.	.	.	.	.	.	16dd\JJ)	.
[4G\	.	[4c\	.	[4e/	.	(8ee\L	.
.	.	.	.	.	.	8cc\J	.
=20	=20	=20	=20	=20	=20	=20	=20
4G\]	.	4c\]	.	4e/]	.	16b\LL	.
.	.	.	.	.	.	16cc\	.
.	.	.	.	.	.	16dd\	.
.	.	.	.	.	.	16ee\JJ)	.
4G\	f	4B/	f	4d/	f	(16ff\LL	f
.	.	.	.	.	.	16gg\	.
.	.	.	.	.	.	16aa\	.
.	.	.	.	.	.	16gg\JJ	.
4r	.	4r	.	4r	.	16ff\LL	.
.	.	.	.	.	.	16ee\	.
.	.	.	.	.	.	16dd\	.
.	.	.	.	.	.	16cc\JJ	.
=21	=21	=21	=21	=21	=21	=21	=21
2.r	.	4r	.	2.r	.	16b/LL	.
.	.	.	.	.	.	16a/	.
.	.	.	.	.	.	16g/	.
.	.	.	.	.	.	16f/JJ	.
.	.	4r	.	.	.	16e/LL	.
.	.	.	.	.	.	16d/	.
.	.	.	.	.	.	16c/	.
.	.	.	.	.	.	16B/JJ)	.
.	.	(16A/LL	p	.	.	4r	.
.	.	16G/	.	.	.	.	.
.	.	16F/	.	.	.	.	.
.	.	16E/JJ)	.	.	.	.	.
=22	=22	=22	=22	=22	=22	=22	=22
(16D/LL	p	2.r	.	2.r	.	2.r	.
16C/	.	.	.	.	.	.	.
16BB/	.	.	.	.	.	.	.
16AA/JJ	.	.	.	.	.	.	.
16GG/LL	.	.	.	.	.	.	.
16AA/	.	.	.	.	.	.	.
16BB/	.	.	.	.	.	.	.
16C/JJ	.	.	.	.	.	.	.
16D/LL	.	.	.	.	.	.	.
16E/	.	.	.	.	.	.	.
16F/	.	.	.	.	.	.	.
16D/JJ)	.	.	.	.	.	.	.
=23	=23	=23	=23	=23	=23	=23	=23
(2C/	.	4r	.	2.r	.	2.r	.
.	.	[2G/	p	.	.	.	.
16BB/LL	.	.	.	.	.	.	.
16C/	.	.	.	.	.	.	.
16D/	.	.	.	.	.	.	.
16E/JJ)	.	.	.	.	.	.	.
=24	=24	=24	=24	=24	=24	=24	=24
(2F\	.	4G/]	.	(2d/	p	4r	.
.	.	(16F#/LL	.	.	.	4r	.
.	.	16G/	.	.	.	.	.
.	.	16A/	.	.	.	.	.
.	.	16B/JJ	.	.	.	.	.
4E\	.	8c/L	.	16c/LL	.	[4g/	p
.	.	.	.	16d/	.	.	.
.	.	[8G/J)	.	16e/	.	.	.
.	.	.	.	16f/JJ	.	.	.
=25	=25	=25	=25	=25	=25	=25	=25
4D\)	.	(8G/L]	.	4g/)	.	(16g\LL]	.
.	.	.	.	.	.	16a\	.
.	.	8A/J	.	.	.	16b\	.
.	.	.	.	.	.	16cc\JJ	.
(4.G\	.	8B/L	.	4r	.	16dd\LL	.
.	.	.	.	.	.	16ee\	.
.	.	8G/	.	.	.	16ff#\	.
.	.	.	.	.	.	16gg\JJ	.
.	.	8c/	.	8r	.	16aa\LL	.
.	.	.	.	.	.	16bb\	.
8F#\)	.	8A/J)	.	8c/ 8d/	.	16ccc\	.
.	.	.	.	.	.	16aa\JJ)	.
=26	=26	=26	=26	=26	=26	=26	=26
(4.A\	.	4.c\	.	4.d/	.	(16gg\LL	.
.	.	.	.	.	.	16ff#\	.
.	.	.	.	.	.	16ee\	.
.	.	.	.	.	.	16ff#\JJ)	.
.	.	.	.	.	.	(16aa\LL	.
.	.	.	.	.	.	16gg\	.
8G\L	.	(8B\L	.	(8g/L	.	16ff#\	.
.	.	.	.	.	.	16gg\JJ	.
8Fn\	.	8c\	.	8a/	.	16aa\LL	.
.	.	.	.	.	.	16gg\	.
8D\J)	.	8d\J)	.	8b/J)	.	16bb\	.
.	.	.	.	.	.	16gg\JJ)	.
=27	=27	=27	=27	=27	=27	=27	=27
(4C/	.	4e\	.	8cc\	.	(4.ccc\	.
.	.	.	.	(16gg\LL	.	.	.
.	.	.	.	16aa\JJ	.	.	.
4c\	.	(4e\	.	16gg\LL	.	.	.
.	.	.	.	16aa\	.	.	.
.	.	.	.	16gg\	.	16ddd\LL	.
.	.	.	.	16aa\JJ	.	16ccc\JJ	.
16d\LL	.	16f\LL	.	16gg\LL	.	16bb\LL	.
16c\	.	16e\	.	16aa\	.	16ccc\	.
16B\	.	16d\	.	16bb\	.	16ddd\	.
16A\JJ)	.	16c\JJ)	.	16ccc\JJ)	.	16eee\JJ)	.
=28	=28	=28	=28	=28	=28	=28	=28
(4G\	.	4B/	.	(4ddd\	.	(4fff\	.
4G#\	.	(4B/	.	4dd\	.	4ff\	.
4A\)	.	4c/)	.	4cc\)	.	4ee\)	.
=29	=29	=29	=29	=29	=29	=29	=29
(4F\	.	(8c/L	.	4.cc\	.	4.dd\	.
.	.	8A/	.	.	.	.	.
4F#\	.	8d/	.	.	.	.	.
.	.	8A/	.	(8cc\L	.	(8aa\L	.
4Gn\)	.	8B/	.	8b\)	.	8gg\)	.
.	.	8d/J)	.	8b\J	.	8ff'\J	.
=30	=30	=30	=30	=30	=30	=30	=30
(4G#\	.	(8e\L	.	(8b\L	.	4.ee\	.
.	.	8B\	.	8dd\J)	.	.	.
2A\)	.	8e\	.	4.cc\	.	.	.
.	.	8c\	.	.	.	(8ccc\L	.
.	.	8e\	.	.	.	8bb\)	.
.	.	[8f\J)	.	8cc\	.	8aa'\J	.
=31	=31	=31	=31	=31	=31	=31	=31
4.B\	.	8f\L]	.	(8dd\	.	4.gg\	.
.	.	(8d\	.	4ff\)	.	.	.
.	.	8g\	.	.	.	.	.
(8B\L	f	8d\)	f	(8ff\L	f	(8fff\L	f
8c\J)	.	8e\	.	8ee\)	.	8eee\)	.
[8c\	.	8e\J	.	[8gg\J	.	8ccc'\J	.
=32	=32	=32	=32	=32	=32	=32	=32
8c\L]	p	(8f\L	p	8gg\]	p	4bb\	p
(8F\J	.	16c\L	.	(8ff\L	.	.	.
.	.	16d\JJ)	.	.	.	.	.
8G\)	.	8e\	.	8ee\J)	.	(8aa\L	.
(4g\	.	4g\	.	(8cc'\L	.	8gg\J)	.
.	.	.	.	8dd'\	.	(12ee'\L	.
.	.	.	.	.	.	12ff'\	.
8f\)	.	8g\	.	8b'\J)	.	.	.
.	.	.	.	.	.	12dd'\J)	.
=33	=33	=33	=33	=33	=33	=33	=33
(4e\	.	4g\	.	(4cc\	.	[2.gg\	.
(16f\LL)	.	(16g\LL	.	16b\LL	.	.	.
16e\	.	16a\	.	16cc\	.	.	.
16d\	.	16b\	.	16dd\	.	.	.
16c\JJ	.	16cc\JJ	.	16ee\JJ	.	.	.
16B\LL	.	4dd\)	.	4ff\)	.	.	.
16A\	.	.	.	.	.	.	.
16G\	.	.	.	.	.	.	.
16F\JJ)	.	.	.	.	.	.	.
=34	=34	=34	=34	=34	=34	=34	=34
(16E/LL	.	2dd\	.	2ff\	.	(2gg\]	.
16D/	.	.	.	.	.	.	.
16C/	.	.	.	.	.	.	.
16BB/JJ	.	.	.	.	.	.	.
16AA/LL	.	.	.	.	.	.	.
16GG/	.	.	.	.	.	.	.
16FF/	.	.	.	.	.	.	.
16EE/JJ	.	.	.	.	.	.	.
16DD/LL	.	[4G/	.	(4f/	.	8aa\L	.
16EE/	.	.	.	.	.	.	.
16FF/	.	.	.	.	.	8bb\J	.
16DD/JJ)	.	.	.	.	.	.	.
=35	=35	=35	=35	=35	=35	=35	=35
8CC/L	.	8G/L]	.	8e/L)	.	4ccc\)	.
8C/J	.	8G/J	.	8ee\J	.	.	.
(16BB/LL	.	(16d/LL	.	(16ff\LL	.	4r	.
16C/	.	16c/	.	16ee\	.	.	.
16D/	.	16B/	.	16dd\	.	.	.
16E/JJ	.	16A/JJ	.	16cc\JJ	.	.	.
16F/LL	.	16G/LL	.	16b\LL	.	(16bb\LL	.
16E/	.	16A/	.	16cc\	.	16ccc\	.
16D/	.	16B/	.	16dd\	.	16ddd\	.
16C/JJ)	.	16c/JJ)	.	16ee\JJ)	.	16eee\JJ)	.
=36	=36	=36	=36	=36	=36	=36	=36
(16BB/LL	f	[2.d\	f	[2.ff\	f	[4fff\	f
16C/	.	.	.	.	.	.	.
16BB/	.	.	.	.	.	.	.
16AA/JJ)	.	.	.	.	.	.	.
[2GG/	.	.	.	.	.	(16fff\LL]	.
.	.	.	.	.	.	16eee\	.
.	.	.	.	.	.	16ddd\	.
.	.	.	.	.	.	16ccc\JJ	.
.	.	.	.	.	.	16bb\LL	.
.	.	.	.	.	.	16ccc\	.
.	.	.	.	.	.	16ddd\	.
.	.	.	.	.	.	16bb\JJ)	.
=37	=37	=37	=37	=37	=37	=37	=37
2GG/]	.	4d\]	.	4ff\]	.	(16gg\LL	.
.	.	.	.	.	.	16aa\	.
.	.	.	.	.	.	16ff\	.
.	.	.	.	.	.	16dd\JJ)	.
.	.	[2G/	.	[2f/	.	(16cc\LL	.
.	.	.	.	.	.	16dd\	.
.	.	.	.	.	.	16b\	.
.	.	.	.	.	.	16g\JJ)	.
[4GG/	.	.	.	.	.	(16cc\LL	.
.	.	.	.	.	.	16dd\	.
.	.	.	.	.	.	16b\	.
.	.	.	.	.	.	16g\JJ)	.
=38	=38	=38	=38	=38	=38	=38	=38
4GG/]	.	8G/L]	.	(2f/]	p	(2dd\	p
.	.	(16G/L	p	.	.	.	.
.	.	16A/JJ	.	.	.	.	.
4GG/	p	16G/LL	.	.	.	.	.
.	.	16A/	.	.	.	.	.
.	.	16G/	.	.	.	.	.
.	.	16A/JJ)	.	.	.	.	.
4CC/	.	4G/	.	4e/)	.	4cc\)	.
=39:|!	=39:|!	=39:|!	=39:|!	=39:|!	=39:|!	=39:|!	=39:|!
*>C	*>C	*>C	*>C	*>C	*>C	*>C	*>C
*k[b-]	*k[b-]	*k[b-]	*k[b-]	*k[b-]	*k[b-]	*k[b-]	*k[b-]
*M3/4	*M3/4	*M3/4	*M3/4	*M3/4	*M3/4	*M3/4	*M3/4
4FF/	f	4A/	f	4c/	f	8.A/ 8.f/L	f
.	.	.	.	.	.	16f/Jk	.
4r	.	4r	.	4r	.	8a'\L	.
.	.	.	.	.	.	8cc'\	.
4r	.	4r	.	4r	.	8ff'\	.
.	.	.	.	.	.	8aa'\J	.
=40	=40	=40	=40	=40	=40	=40	=40
2.r	.	4r	.	2.r	.	8ccc'\L	.
.	.	.	.	.	.	8aa'\	.
.	.	8r	.	.	.	8ff'\	.
.	.	8c'/L	.	.	.	8cc'\	.
.	.	8A'/	.	.	.	8a'\	.
.	.	8F'/J	.	.	.	8f'\J	.
=41	=41	=41	=41	=41	=41	=41	=41
4r	.	4.C/	.	4r	.	4.c/	.
8r	.	.	.	4r	.	.	.
8FF'/L	p	8A'/L	.	.	.	8c'/L	.
8EE'/	.	8G'/	.	8r	.	8c'/	.
8GG'/J	.	8B-'/J	.	8e'/	p	8c'/J	.
=42	=42	=42	=42	=42	=42	=42	=42
4.FF/	.	(8A/L	f	4f/	.	4.c/	.
.	.	16G/L	.	.	.	.	.
.	.	16A/JJ)	.	.	.	.	.
.	.	8F'/	.	4r	.	.	.
8FF'/L	.	8A'/L	p	.	.	8c/L	.
8EE'/	.	8G'/	.	8r	.	8c/	.
8GG'/J	.	8B-'/J	.	8e/	p	8c/J	.
=43	=43	=43	=43	=43	=43	=43	=43
4.FF/	.	(8A/L	f	4f/	.	4.c/	.
.	.	16G/L	.	.	.	.	.
.	.	16A/JJ)	.	.	.	.	.
.	.	8F'/	.	8r	.	.	.
8FF'/L	.	8c'/L	p	8A'/L	.	8a'/L	.
8EE'/	.	8c'/	.	8G'/	.	8g'/	.
8DD'/J	.	8F/ 8G/J	.	8Bn'/J	.	8bn'/J	.
=44	=44	=44	=44	=44	=44	=44	=44
4CC/	.	4E/ 4G/	.	(16c/LL	.	4cc\	.
.	.	.	.	16d/	.	.	.
.	.	.	.	16e/	.	.	.
.	.	.	.	16f/JJ	.	.	.
4r	.	4r	.	16g/LL	.	4r	.
.	.	.	.	16a/	.	.	.
.	.	.	.	16g/	.	.	.
.	.	.	.	16f/JJ	.	.	.
4r	.	4r	.	16e/LL	.	[4ee\	.
.	.	.	.	16g/	.	.	.
.	.	.	.	16a/	.	.	.
.	.	.	.	16bn/JJ)	.	.	.
=45	=45	=45	=45	=45	=45	=45	=45
4CC/	.	4E/ 4G/	.	(16cc\LL	.	4ee\]	.
.	.	.	.	16bn\	.	.	.
.	.	.	.	16cc\	.	.	.
.	.	.	.	16a\JJ	.	.	.
4r	.	4r	.	16g\LL	.	4r	.
.	.	.	.	16b\	.	.	.
.	.	.	.	16cc\	.	.	.
.	.	.	.	16dd\JJ	.	.	.
4r	.	4r	.	16ee\LL	.	[4gg\	.
.	.	.	.	16ff\	.	.	.
.	.	.	.	16ee\	.	.	.
.	.	.	.	16dd\JJ)	.	.	.
=46	=46	=46	=46	=46	=46	=46	=46
4CC/	.	4E/ 4G/	.	(16cc\LL	.	4gg\]	.
.	.	.	.	16dd\	.	.	.
.	.	.	.	16ee\	.	.	.
.	.	.	.	16ff\JJ	.	.	.
4r	.	4r	.	16gg\LL	.	4r	.
.	.	.	.	16aa\	.	.	.
.	.	.	.	16gg\	.	.	.
.	.	.	.	16ff\JJ	.	.	.
4r	.	4r	.	16ee\LL	.	[4ccc\	.
.	.	.	.	16cc\	.	.	.
.	.	.	.	16b-\	.	.	.
.	.	.	.	16a\JJ)	.	.	.
=47	=47	=47	=47	=47	=47	=47	=47
8r	.	8r	.	(16g/LL	.	8ccc\]	.
.	.	.	.	16f/	.	.	.
8GG/L	.	8E/ 8G/L	.	16e/	.	4eee\	.
.	.	.	.	16d/JJ)	.	.	.
8GG/	.	8E/ 8G/	.	(16c/LL	.	.	.
.	.	.	.	16g/	.	.	.
8GG/	.	8E/ 8G/	.	16e/	.	8ggg\L	.
.	.	.	.	16c/JJ	.	.	.
8GG/	.	8Bn/	.	16d/LL	.	8ggg\	.
.	.	.	.	16g/	.	.	.
8GG/J	.	8B/J	.	16f/	.	8ggg\J	.
.	.	.	.	16d/JJ)	.	.	.
=48	=48	=48	=48	=48	=48	=48	=48
8C/L	.	(16C/LL	.	(16c/LL	.	8ccc\	.
.	.	16D/	.	16d/	.	.	.
8CC/	.	16E/	.	16e/	.	8r	.
.	.	16F/JJ	.	16f/JJ	.	.	.
8C/J	.	16G/LL	.	16g/LL	.	8r	.
.	.	16A/	.	16a/	.	.	.
8r	.	16G/	.	16g/	.	8cc'\	.
.	.	16F/JJ	.	16f/JJ	.	.	.
4r	.	16E/LL	.	16e/LL	.	[4ee\	.
.	.	16G/	.	16g/	.	.	.
.	.	16A/	.	16a/	.	.	.
.	.	16Bn/JJ)	.	16bn/JJ)	.	.	.
=49	=49	=49	=49	=49	=49	=49	=49
8C/L	.	(16c/LL	.	(16cc\LL	.	4ee\]	.
.	.	16Bn/	.	16bn\	.	.	.
8CC/	.	16c/	.	16cc\	.	.	.
.	.	16A/JJ	.	16a\JJ	.	.	.
8C/J	.	16G/LL	.	16g\LL	.	8r	.
.	.	16B/	.	16b\	.	.	.
8r	.	16c/	.	16cc\	.	8ee'\	.
.	.	16d/JJ	.	16dd\JJ	.	.	.
4r	.	16e/LL	.	16ee\LL	.	[4gg\	.
.	.	16f/	.	16ff\	.	.	.
.	.	16e/	.	16ee\	.	.	.
.	.	16d/JJ)	.	16dd\JJ)	.	.	.
=50	=50	=50	=50	=50	=50	=50	=50
8C/L	.	(16c\LL	.	(16cc\LL	.	4gg\]	.
.	.	16d\	.	16dd\	.	.	.
8CC/	.	16e\	.	16ee\	.	.	.
.	.	16f\JJ	.	16ff\JJ	.	.	.
8C/J	.	16g\LL	.	16gg\LL	.	8r	.
.	.	16a\	.	16aa\	.	.	.
8r	.	16g\	.	16gg\	.	8gg'\	.
.	.	16f\JJ	.	16ff\JJ	.	.	.
4r	.	16e\LL	.	16ee\LL	.	[4ccc\	.
.	.	16c\	.	16cc\	.	.	.
.	.	16Bn\	.	16bn\	.	.	.
.	.	16A\JJ)	.	16a\JJ)	.	.	.
=51	=51	=51	=51	=51	=51	=51	=51
4r	.	(16G/LL	.	(16g/LL	.	8ccc\L]	.
.	.	16F/	.	16f/	.	.	.
.	.	16E/	.	16e/	.	8ccc'\J	.
.	.	16D/JJ)	.	16d/JJ)	.	.	.
8r	.	(16C/LL	.	(16c/LL	.	8eee'\	.
.	.	16G/	.	16g/	.	.	.
8GG/L	.	16E/	.	16e/	.	4ggg\	.
.	.	16C/JJ)	.	16c/JJ)	.	.	.
8GG/	.	(16D/LL	.	(16d/LL	.	.	.
.	.	16G/	.	16g/	.	.	.
8GG/J	.	16F/	.	16f/	.	8ggg\	.
.	.	16D/JJ)	.	16d/JJ)	.	.	.
=52	=52	=52	=52	=52	=52	=52	=52
4r	.	(16G/LL	.	(16g/LL	.	8r	.
.	.	16F/	.	16f/	.	.	.
.	.	16E/	.	16e/	.	8ccc'\	.
.	.	16D/JJ)	.	16d/JJ)	.	.	.
8r	.	(16C/LL	.	(16c/LL	.	8eee'\	.
.	.	16G/	.	16g/	.	.	.
8GG/L	.	16E/	.	16e/	.	4ggg\	.
.	.	16C/JJ)	.	16c/JJ)	.	.	.
8GG/	.	(16D/LL	.	(16d/LL	.	.	.
.	.	16G/	.	16g/	.	.	.
8GG/J	.	16F/	.	16f/	.	8ggg\	.
.	.	16D/JJ)	.	16d/JJ)	.	.	.
=53	=53	=53	=53	=53	=53	=53	=53
4r	.	(16G/LL	f	(16g/LL	f	8r	.
.	.	16F/	.	16f/	.	.	.
.	.	16E/	.	16e/	.	8ccc'\L	f
.	.	16D/JJ)	.	16d/JJ)	.	.	.
8r	.	(16C/LL	.	(16c/LL	.	8eee'\	.
.	.	16G/	.	16g/	.	.	.
8GG/L	f	16E/	.	16e/	.	8ggg'\J	.
.	.	16C/JJ)	.	16c/JJ)	.	.	.
8GG/	.	(16D/LL	.	(16d/LL	.	8G'/L	.
.	.	16G/	.	16g/	.	.	.
8GG/J	.	16F/	.	16f/	.	8bn'/J	.
.	.	16D/JJ)	.	16d/JJ)	.	.	.
=54	=54	=54	=54	=54	=54	=54	=54
*>C1	*>C1	*>C1	*>C1	*>C1	*>C1	*>C1	*>C1
8CC'/L	.	8C'/L	.	4c/	.	4cc\	.
8D'/J	.	8d'/J	.	.	.	.	.
8r	.	8r	.	4r	.	4r	.
8BB-'/L	p	8B-'/L	p	.	.	.	.
8GG'/	.	8G'/	.	8r	.	8r	.
8C'/J	.	8c'/J	.	8c/	p	8G/ 8e/	p
=55:|!	=55:|!	=55:|!	=55:|!	=55:|!	=55:|!	=55:|!	=55:|!
*>C2	*>C2	*>C2	*>C2	*>C2	*>C2	*>C2	*>C2
8CC'/L	f	8C'/L	f	4c/	f	8cc'/L	f
8C/J	.	8c'/J	.	.	.	8c'/J	.
8r	.	8r	.	4r	.	8r	.
8C/	.	8c/	.	.	.	8c/	.
(8.BB-/L	.	(8.B-/L	.	4r	.	(8.B-/L	.
32AA/LL	.	32A/LL	.	.	.	32A/LL	.
32BB-/JJJ)	.	32B-/JJJ)	.	.	.	32B-/JJJ)	.
=56!|:	=56!|:	=56!|:	=56!|:	=56!|:	=56!|:	=56!|:	=56!|:
*>D	*>D	*>D	*>D	*>D	*>D	*>D	*>D
4AA/	f	4A/	f	4c#/ 4e/	f	8.A/ 8.e/ 8.a/L	f
.	.	.	.	.	.	16a/Jk	.
4r	.	4r	.	4r	.	8cc#'\L	.
.	.	.	.	.	.	8ee'\	.
4r	.	4r	.	4r	.	8aa'\	.
.	.	.	.	.	.	8ccc#'\J	.
=57	=57	=57	=57	=57	=57	=57	=57
2.r	.	2.r	.	4r	.	8eee'\L	.
.	.	.	.	.	.	8ccc#'\J	.
.	.	.	.	8r	.	8aa'\L	.
.	.	.	.	8e/L	.	8ee'\	.
.	.	.	.	8c#/	.	8cc#'\	.
.	.	.	.	8e/J	.	8ee'\J	.
=58	=58	=58	=58	=58	=58	=58	=58
4r	.	4r	.	4.A/	.	4.a/	.
8r	.	8r	.	.	.	.	.
8DD'/L	f	8F'/L	f	8A'/L	f	8a'/L	f
8CC'/	.	8E'/	.	8A'/	.	8a'/	.
8EE'/J	.	8G'/J	.	8A'/J	.	8a'/J	.
=59	=59	=59	=59	=59	=59	=59	=59
4.DD/	.	(8F/L	.	4.A/	.	4.a/	.
.	.	16E/L	.	.	.	.	.
.	.	16F/JJ)	.	.	.	.	.
.	.	8D'/	.	.	.	.	.
8r	.	8d'\L	p	8f'/L	p	8a'\L	p
4r	.	8d'\	.	8f'/	.	8b-'\	.
.	.	8d'\J	.	8f'/J	.	8b-'\J	.
=60	=60	=60	=60	=60	=60	=60	=60
4r	.	4.e\	.	(8g/L	.	4.b-\	.
.	.	.	.	16f/L	.	.	.
.	.	.	.	16g/JJ)	.	.	.
8r	.	.	.	8e'/	f	.	.
8EE'/L	f	8G'/L	f	8B-'/L	.	8b-'\L	f
8DD'/	.	8F'/	.	8B-'/	.	8b-'\	.
8FF'/J	.	8A'/J	.	8B-'/J	.	8b-'\J	.
=61	=61	=61	=61	=61	=61	=61	=61
4.EE/	.	(8G/L	.	4.B-/	.	4.b-\	.
.	.	16F/L	.	.	.	.	.
.	.	16G/JJ)	.	.	.	.	.
.	.	8E'/	.	.	.	.	.
8r	.	8e'\L	p	8g'/L	p	8b-'\L	p
4r	.	8e'\	.	8g'/	.	8cc'\	.
.	.	8e'\J	.	8g'/J	.	8cc'\J	.
=62	=62	=62	=62	=62	=62	=62	=62
4r	.	4f\	.	(8a/L	.	4.cc\	.
.	.	.	.	16g/L	.	.	.
.	.	.	.	16a/JJ)	.	.	.
8r	.	8r	.	8f'/	.	.	.
8FF'/L	f	8A'/L	f	8c'/L	f	8r	.
8EE'/	.	8G'/	.	8c'/	.	4r	.
8GG'/J	.	8B-'/J	.	8c'/J	.	.	.
=63	=63	=63	=63	=63	=63	=63	=63
4FF/	.	(8A/L	.	4.c/	.	4r	.
.	.	16G/L	.	.	.	.	.
.	.	16A/JJ)	.	.	.	.	.
4r	.	8F'/	.	.	.	8r	.
.	.	8f'\L	p	8a'/L	p	8cc'\L	p
4r	.	8e'\	.	8g'/	.	8cc'\	.
.	.	8g'\J	.	8b-'/J	.	8cc\J	.
=64	=64	=64	=64	=64	=64	=64	=64
4r	.	4f\	.	(8a/L	.	4.cc\	.
.	.	.	.	16g/L	.	.	.
.	.	.	.	16a/JJ)	.	.	.
4r	.	8r	.	8f'/	.	.	.
.	.	8F'/L	.	8A'/L	.	8c'/L	.
8r	.	8E'/	.	8G'/	.	8c'/	.
8CC/	p	8G'/J	.	8B-'/J	.	8e'/J	.
=65	=65	=65	=65	=65	=65	=65	=65
4FF/	.	(16F/LL	.	4A/	.	4f/	.
.	.	16G/	.	.	.	.	.
.	.	16A/	.	.	.	.	.
.	.	16B-/JJ	.	.	.	.	.
4r	.	16c/LL	.	4r	.	4r	.
.	.	16d/	.	.	.	.	.
.	.	16c/	.	.	.	.	.
.	.	16B-/JJ	.	.	.	.	.
4r	.	16A/LL	.	4r	.	[4a/	.
.	.	16c/	.	.	.	.	.
.	.	16d/	.	.	.	.	.
.	.	16e/JJ)	.	.	.	.	.
=66	=66	=66	=66	=66	=66	=66	=66
4FF/	.	(16f\LL	.	4A/ 4f/	.	4a/]	.
.	.	16e\	.	.	.	.	.
.	.	16f\	.	.	.	.	.
.	.	16d\JJ	.	.	.	.	.
4r	.	16c\LL	.	4r	.	4r	.
.	.	16e\	.	.	.	.	.
.	.	16f\	.	.	.	.	.
.	.	16g\JJ	.	.	.	.	.
4r	.	16a\LL	.	4r	.	[4cc\	.
.	.	16b-\	.	.	.	.	.
.	.	16a\	.	.	.	.	.
.	.	16g\JJ)	.	.	.	.	.
=67	=67	=67	=67	=67	=67	=67	=67
4FF/	.	(16f\LL	.	4A/ 4f/	.	4cc\]	.
.	.	16g\	.	.	.	.	.
.	.	16a\	.	.	.	.	.
.	.	16b-\JJ	.	.	.	.	.
4r	.	16cc\LL	.	4r	.	4r	.
.	.	16dd\	.	.	.	.	.
.	.	16cc\	.	.	.	.	.
.	.	16b-\JJ	.	.	.	.	.
4r	.	16a\LL	.	4r	.	[4ff\	.
.	.	16f\	.	.	.	.	.
.	.	16e\	.	.	.	.	.
.	.	16d\JJ)	.	.	.	.	.
=68	=68	=68	=68	=68	=68	=68	=68
4r	.	(16c/LL	.	4r	.	8ff\]	.
.	.	16B-/	.	.	.	.	.
.	.	16A/	.	.	.	4aa\	.
.	.	16G/JJ	.	.	.	.	.
8r	.	16F/LL	.	8r	.	.	.
.	.	16c/	.	.	.	.	.
8C/L	.	16A/	.	8f'/L	.	8ccc\L	.
.	.	16F/JJ	.	.	.	.	.
8C/	.	16G/LL	.	8e'/	.	8ccc\	.
.	.	16c/	.	.	.	.	.
8C/J	.	16B-/	.	8e'/J	.	8ccc\J	.
.	.	16G/JJ)	.	.	.	.	.
=69	=69	=69	=69	=69	=69	=69	=69
8F/L	.	(16F/LL	.	(16f/LL	.	4ff\	.
.	.	16G/	.	16g/	.	.	.
8FF/	.	16A/	.	16a/	.	.	.
.	.	16B-/JJ	.	16b-/JJ	.	.	.
8F/J	.	16c/LL	.	16cc\LL	.	8r	.
.	.	16d/	.	16dd\	.	.	.
8r	.	16c/	.	16cc\	.	8ff'\	.
.	.	16B-/JJ	.	16b-\JJ	.	.	.
4r	.	16A/LL	.	16a\LL	.	[4aa\	.
.	.	16c/	.	16cc\	.	.	.
.	.	16d/	.	16dd\	.	.	.
.	.	16e/JJ)	.	16ee\JJ)	.	.	.
=70	=70	=70	=70	=70	=70	=70	=70
8F/L	.	(16f\LL	.	(16ff\LL	.	4aa\]	.
.	.	16e\	.	16ee\	.	.	.
8FF/	.	16f\	.	16ff\	.	.	.
.	.	16d\JJ	.	16dd\JJ	.	.	.
8F/J	.	16c\LL	.	16cc\LL	.	8r	.
.	.	16e\	.	16ee\	.	.	.
8r	.	16f\	.	16ff\	.	8aa'\	.
.	.	16g\JJ	.	16gg\JJ	.	.	.
4r	.	16a\LL	.	16aa\LL	.	[4ccc\	.
.	.	16b-\	.	16bb-\	.	.	.
.	.	16a\	.	16aa\	.	.	.
.	.	16g\JJ)	.	16gg\JJ)	.	.	.
=71	=71	=71	=71	=71	=71	=71	=71
8F/L	.	(16f\LL	.	(16ff\LL	.	4ccc\]	.
.	.	16g\	.	16gg\	.	.	.
8FF/	.	16a\	.	16aa\	.	.	.
.	.	16b-\JJ	.	16bb-\JJ	.	.	.
8F/J	.	16cc\LL	.	16ccc\LL	.	8r	.
.	.	16dd\	.	16ddd\	.	.	.
8r	.	16cc\	.	16ccc\	.	8ccc'\	.
.	.	16b-\JJ	.	16bb-\JJ	.	.	.
4r	.	16a\LL	.	16aa\LL	.	[4fff\	.
.	.	16f\	.	16ff\	.	.	.
.	.	16e\	.	16ee\	.	.	.
.	.	16d\JJ)	.	16dd\JJ)	.	.	.
=72	=72	=72	=72	=72	=72	=72	=72
4r	.	(16c/LL	.	(16cc/LL	.	8fff\L]	.
.	.	16B-/	.	16b-/	.	.	.
.	.	16A/	.	16a/	.	8fff'\J	.
.	.	16G/JJ)	.	16g/JJ)	.	.	.
8r	.	(16F/LL	.	(16f/LL	.	8aaa'\	.
.	.	16c/	.	16cc/	.	.	.
8C/L	.	16A/	.	16a/	.	4cccc\	.
.	.	16F/JJ)	.	16f/JJ)	.	.	.
8CC/	.	(16G/LL	.	(16g/LL	.	.	.
.	.	16c/	.	16cc/	.	.	.
8C/J	.	16B-/	.	16b-/	.	8cccc\	.
.	.	16G/JJ)	.	16g/JJ)	.	.	.
=73	=73	=73	=73	=73	=73	=73	=73
4r	.	(16c/LL	.	(16cc/LL	.	8r	.
.	.	16B-/	.	16b-/	.	.	.
.	.	16A/	.	16a/	.	8fff'\L	.
.	.	16G/JJ)	.	16g/JJ)	.	.	.
8r	.	(16F/LL	.	(16f/LL	.	8aaa'\J	.
.	.	16c/	.	16cc/	.	.	.
8C/L	.	16A/	.	16a/	.	4cccc'\	.
.	.	16F/JJ)	.	16f/JJ)	.	.	.
8CC/	.	(16G/LL	.	(16g/LL	.	.	.
.	.	16c/	.	16cc/	.	.	.
8C/J	.	16B-/	.	16b-/	.	8cccc'\	.
.	.	16G/JJ)	.	16g/JJ)	.	.	.
=74	=74	=74	=74	=74	=74	=74	=74
4r	.	(16c/LL	f	(16cc/LL	f	8r	.
.	.	16B-/	.	16b-/	.	.	.
.	.	16A/	.	16a/	.	8fff'\L	f
.	.	16G/JJ)	.	16g/JJ)	.	.	.
8r	.	(16F/LL	.	(16f/LL	.	8aaa'\	.
.	.	16c/	.	16cc/	.	.	.
8C'/L	f	16A/	.	16a/	.	8cccc'\J	.
.	.	16F/JJ)	.	16f/JJ)	.	.	.
8CC'/	.	(16G/LL	.	(16g/LL	.	8G'/ 8e'/L	.
.	.	16c/	.	16cc/	.	.	.
8C'/J	.	16B-/	.	16b-/	.	8ee'\J	.
.	.	16G/JJ)	.	16g/JJ)	.	.	.
=75	=75	=75	=75	=75	=75	=75	=75
*>D1	*>D1	*>D1	*>D1	*>D1	*>D1	*>D1	*>D1
8FF'/L	.	8F'/L	.	4f/	.	8ff'\L	.
8FF'/J	.	8F'/J	.	.	.	8f'\J	.
8r	.	8r	.	4r	.	8r	.
8FF/	.	8F/	.	.	.	8f/	.
(8.GG/L	.	(8.G/L	.	4r	.	(8.g/L	.
32FF/LL	.	32F/LL	.	.	.	32f/LL	.
32GG/JJJ)	.	32G/JJJ)	.	.	.	32g/JJJ)	.
=76:|!	=76:|!	=76:|!	=76:|!	=76:|!	=76:|!	=76:|!	=76:|!
*>D2	*>D2	*>D2	*>D2	*>D2	*>D2	*>D2	*>D2
8FF/L	.	8F/L	.	4f/	.	4ff\	.
8FF/J	.	8F/J	.	.	.	.	.
8r	.	8r	.	4r	.	4r	.
8FF'/L	p	8F'/L	p	.	.	.	.
8DD'/	.	8D'/	.	4r	.	4r	.
8FF'/J	.	8F'/J	.	.	.	.	.
=77	=77	=77	=77	=77	=77	=77	=77
4GG/	.	4G/	.	8r	.	2.r	.
.	.	.	.	8f'/L	p	.	.
4r	.	4r	.	8d'/	.	.	.
.	.	.	.	8f'/J	.	.	.
4r	.	4r	.	[4g/	.	.	.
=78	=78	=78	=78	=78	=78	=78	=78
2.r	.	2.f\	.	2.g/]	.	2.r	.
=79	=79	=79	=79	=79	=79	=79	=79
*>E	*>E	*>E	*>E	*>E	*>E	*>E	*>E
*k[]	*k[]	*k[]	*k[]	*k[]	*k[]	*k[]	*k[]
*M3/4	*M3/4	*M3/4	*M3/4	*M3/4	*M3/4	*M3/4	*M3/4
(2C/	pp	4r	.	4r	.	4r	.
.	.	4e-\	pp	4g/	pp	4cc\	pp
16BB/LL	.	4e-\	.	4g/	.	[4cc\	.
16C/	.	.	.	.	.	.	.
16D/	.	.	.	.	.	.	.
16E-/JJ)	.	.	.	.	.	.	.
=80	=80	=80	=80	=80	=80	=80	=80
(2F\	.	4c\	.	4a-/	.	4cc\]	.
.	.	4f\	.	4a-/	.	4cc\	.
16En\LL	.	[4f\	.	[4a-/	.	[4cc\	.
16F\	.	.	.	.	.	.	.
16G\	.	.	.	.	.	.	.
16A-\JJ)	.	.	.	.	.	.	.
=81	=81	=81	=81	=81	=81	=81	=81
(2D/	.	4f\]	.	4a-/]	.	(4cc\]	.
.	.	4f\	.	4a-/	.	4b-\)	.
16C#/LL	.	[4A-/	.	4f/	.	[4b-\	.
16D/	.	.	.	.	.	.	.
16E/	.	.	.	.	.	.	.
16F/JJ)	.	.	.	.	.	.	.
=82	=82	=82	=82	=82	=82	=82	=82
4BB-/	.	(4A-/]	.	(4B-/	.	4b-\]	.
4r	.	16G/LL	.	16c/LL	.	(4b-\	.
.	.	16F/	.	16d/	.	.	.
.	.	16E-/	.	16e-/	.	.	.
.	.	16D/JJ)	.	16f/JJ)	.	.	.
4r	.	4r	.	4r	.	16cc\LL	.
.	.	.	.	.	.	16dd\	.
.	.	.	.	.	.	16ee-\	.
.	.	.	.	.	.	16ff\JJ)	.
=83	=83	=83	=83	=83	=83	=83	=83
(2E-\	pp	4B-/	pp	4ee-\	pp	4gg\	pp
.	.	4b-\	.	4ee-\	.	4gg\	.
16D\LL	.	4b-\	.	[4ee-\	.	[4gg\	.
16E-\	.	.	.	.	.	.	.
16F\	.	.	.	.	.	.	.
16G\JJ)	.	.	.	.	.	.	.
=84	=84	=84	=84	=84	=84	=84	=84
(2A-\	.	4cc\	.	4ee-\]	.	4gg\]	.
.	.	4cc\	.	4ee-\	.	4aa-\	.
16G\LL	.	[4cc\	.	4ee-\	.	[4aa-\	.
16A-\	.	.	.	.	.	.	.
16B-\	.	.	.	.	.	.	.
16c\JJ)	.	.	.	.	.	.	.
=85	=85	=85	=85	=85	=85	=85	=85
(2F\	.	4cc\]	.	4ff\	.	4aa-\]	.
.	.	4cc\	.	4ff\	.	4aa-\	.
16En\LL	.	4cc\	.	[4ff\	.	[4aa-\	.
16F\	.	.	.	.	.	.	.
16G\	.	.	.	.	.	.	.
16A-\JJ)	.	.	.	.	.	.	.
=86	=86	=86	=86	=86	=86	=86	=86
4D\	.	4bn\	.	4ff\]	.	4aa-\]	.
4r	.	4r	.	4r	.	(16een\LL	.
.	.	.	.	.	.	16ff\	.
.	.	.	.	.	.	16gg\	.
.	.	.	.	.	.	16aa-\JJ)	.
(16E\LL	.	4r	.	4r	.	8dd\	.
16F\	.	.	.	.	.	.	.
16G\	.	.	.	.	.	8r	.
16A-\JJ)	.	.	.	.	.	.	.
=87	=87	=87	=87	=87	=87	=87	=87
(2D\	.	4r	.	4r	.	4r	.
.	.	4A-/	.	4d/	.	4f/	.
16C#\LL	.	[4A-/	.	[4d/	.	[4f/	.
16D\	.	.	.	.	.	.	.
16E\	.	.	.	.	.	.	.
16F\JJ)	.	.	.	.	.	.	.
=88	=88	=88	=88	=88	=88	=88	=88
4BB/	.	4A-/]	.	4d/]	.	4f/]	.
4r	.	4r	.	4r	.	16cc#\LL	.
.	.	.	.	.	.	16dd\	.
.	.	.	.	.	.	16ee\	.
.	.	.	.	.	.	16ff\JJ	.
(4AA-/	f	(4A-/	f	(4A-/	f	(4A-/	f
=89	=89	=89	=89	=89	=89	=89	=89
4GG/)	p	2G/)	p	8G/)	p	8G/)	.
.	.	.	.	8r	.	8r	.
4r	.	.	.	(16f#/LL	.	(16an\LL	.
.	.	.	.	16g/	.	16b\	.
.	.	.	.	16an/	.	16ccn\	.
.	.	.	.	16b/JJ)	.	16dd\JJ)	.
4r	.	(16C/LL	.	4cc/	.	4ee-\	.
.	.	16D/	.	.	.	.	.
.	.	16E-/	.	.	.	.	.
.	.	16F/JJ)	.	.	.	.	.
=90	=90	=90	=90	=90	=90	=90	=90
(8CC/L	.	[2.G/	>	2.cc\	>	2.ee-\	>
16DD/L	>	.	.	.	.	.	.
16EE-/JJ	.	.	.	.	.	.	.
16FF/LL	.	.	.	.	.	.	.
16GG/	.	.	.	.	.	.	.
16AA/	.	.	.	.	.	.	.
16BB/JJ	.	.	.	.	.	.	.
16C/LL	.	.	.	.	.	.	.
16D/	.	.	.	.	.	.	.
16E-/	.	.	.	.	.	.	.
16F/JJ)	.	.	.	.	.	.	.
=91	=91	=91	=91	=91	=91	=91	=91
4G\	p	4G/_	p	(16b/LL	p	(16dd\LL	p
.	.	.	.	16g/	.	16b\	.
.	.	.	.	16a/	.	16cc\	.
.	.	.	.	16g/JJ	.	16b\JJ	.
4r	.	16G/LL]	.	16f#/LL	.	16a\LL	.
.	.	(16F/	.	16g/	.	16b\	.
.	.	16E-/	.	16a/	.	16cc\	.
.	.	16D/JJ	.	16b/JJ	.	16dd\JJ)	.
(16GG/LL	.	16C/LL	.	8cc'\L)	.	8ee-'\L	.
16FF/	.	16D/	.	.	.	.	.
16EE-/	.	16E-/	.	8cc'\J	.	8ee-'\J	.
16DD/JJ)	.	16F/JJ)	.	.	.	.	.
=92	=92	=92	=92	=92	=92	=92	=92
(8CC/L	>	[2.G/	>	[2.cc\	>	[2.ee-\	>
16DD/L	.	.	.	.	.	.	.
16EE-/JJ	.	.	.	.	.	.	.
16FF/LL	.	.	.	.	.	.	.
16GG/	.	.	.	.	.	.	.
16AA/	.	.	.	.	.	.	.
16BB/JJ	.	.	.	.	.	.	.
16C\LL	.	.	.	.	.	.	.
16D\	.	.	.	.	.	.	.
16E-\	.	.	.	.	.	.	.
16F\JJ	.	.	.	.	.	.	.
=93	=93	=93	=93	=93	=93	=93	=93
4G\)	p	(2G/]	p	(4cc\]	p	(4ee-\]	p
(4GG/	.	.	.	4b\)	.	4dd\	.
4AA-/	.	4C/	.	4r	.	[4f#/)	.
=94	=94	=94	=94	=94	=94	=94	=94
4AAn/	.	4E-/	.	4r	.	(4f#/]	.
4BB-/	pp	4D/	pp	(4G/	pp	4g/	pp
4BBn/)	.	4G/)	.	4d/)	.	4f/)	.
=95	=95	=95	=95	=95	=95	=95	=95
2BB/	.	[2G/	.	(4.d/	.	(4.f/	.
.	.	.	.	16en/LL	.	16g/LL	.
.	.	.	.	16f/JJ	.	16a/JJ	.
8BB/L	.	8G/L]	.	16g/LL	.	16b\LL	.
.	.	.	.	16an/	.	16cc\	.
(16F/L	f	(16an\L	f	16b/	.	16dd\	.
16En/JJ	>	16g\JJ	.	16cc/JJ)	.	16een\JJ)	.
=96	=96	=96	=96	=96	=96	=96	=96
16D/LL	.	16f\LL	>	2.dd;\	f	2.ff;\	f
16C/	.	16en\	.	.	.	.	.
16BB/	.	16d\	.	.	.	.	.
16AA/JJ)	.	16c\JJ)	.	.	.	.	.
4GG;/	.	4B;/	.	.	.	.	.
4r	.	4r	.	.	.	.	.
=	=	=	=	=	=	=	=
*-	*-	*-	*-	*-	*-	*-	*-
!!!ONB: Scanned with SharpEye into MusicXML by Don Anthony 2006///
!!!ONB: Converted to Humdrum by Craig Sapp 2006/07/24/
